!!!COM: Victoria, Thom&aacute; Luis de
!!!CDT: ~1548///-1611///
!!!CNT@EN: Spanish
!!!PDT: 1572
!!!OTL@LA: O magnum mysterium
!!!AGN: motet
**kern	**kern	**kern	**kern
*staff4	*staff3	*staff2	*staff1
*Ivox	*Ivox	*Ivox	*Ivox
*clefF4	*clefGv2	*clefG2	*clefG2
*k[b-e-a-d-]	*k[b-e-a-d-]	*k[b-e-a-d-]	*k[b-e-a-d-]
*met(C)	*met(C)	*met(C)	*met(C)
*M4/4	*M4/4	*M4/4	*M4/4
*MM180	*MM180	*MM180	*MM180
=1-	=1-	=1-	=1-
1r	1r	1r	1cc
=2	=2	=2	=2
1r	1r	2r	2f/
.	.	[2f/	[2cc\
=3	=3	=3	=3
1r	1r	2f/]	4cc\]
.	.	.	4cc\
.	.	2B-/	4dd-\
.	.	.	4dd-\
=4	=4	=4	=4
1r	1r	2.f/	2cc\
.	.	.	4r
.	.	4f/	4ff\
=5	=5	=5	=5
1r	1r	4g-/	4dd-\
.	.	4g-/	4ee-\
.	.	2f/	4.ff\
.	.	.	8ff\
=6	=6	=6	=6
1r	1r	4r	4ff\
.	.	4f/	4cc\
.	.	4d-/	4dd-\
.	.	4e-/	[4cc\
=7	=7	=7	=7
*	*clefG2	*	*
1r	1r	4.f/	8cc/L]
.	.	.	8b-/
.	.	.	8a-/
.	.	8f/	8g/
.	.	4f/	8a-/
.	.	.	8b-/
.	.	4c/	8cc/
.	.	.	8a-/J
=8	=8	=8	=8
1r	2r	4d-/	8b-/L
.	.	.	8a-/J
.	.	2f/	8a-/L
.	.	.	16g/L
.	.	.	16f/JJ
.	[2cc\	.	[2g/
.	.	8en/L	.
.	.	8dn/J	.
=9	=9	=9	=9
1r	2cc\]	2en/	2g/]
.	2f/	2f/	2f/
=10	=10	=10	=10
1F	2.cc\	1f	1an
.	4cc\	.	.
=11	=11	=11	=11
2BB-/	4dd-\	2f/	2b-\
.	4dd-\	.	.
[2F\	2cc\	4.f/	4.an/
.	.	8g/	8b-\
=12	=12	=12	=12
4F\]	4r	4a-/	4cc\
4F\	4ff\	4A-/	4.dd-\
4G-\	4dd-\	4.B-/	.
.	.	.	8cc\
4G-\	4ee-\	.	4b-\
.	.	8c/	.
=13	=13	=13	=13
2F\	4.ff\	4d-/	4b-\
.	.	4c/	4an/
.	8ff\	.	.
4r	4ff\	4B-/	4b-\
4F\	4cc\	4f/	8a-/L
.	.	.	8g/J
=14	=14	=14	=14
4D-\	4dd-\	4f/	4f/
4E-\	4.cc\	4e-/	4g/
4.F\	.	4.c/	2a-/
.	8b-/L	.	.
.	8a-/	.	.
8F\	8g/J	8c/	.
=15	=15	=15	=15
4F\	2a-/	4c/	4r
4D-\	.	4.d-/	4ff\
2G-\	2b-\	.	4dd-\
.	.	8c/	.
.	.	[4B-/	4ee-\
=16	=16	=16	=16
2F\	2cc\	4B-/]	4.ff\
.	.	4An/	.
.	.	.	8ff\
4BB-/	4dd-\	4B-/	4ff\
4BB-/	4ff\	4b-\	4dd-\
=17	=17	=17	=17
4B-\	4dd-\	4f/	4b-\
4A-\	4ee-\	4a-/	4cc\
4.D-\	4.ff\	4.a-/	4.dd-\
8D-\	8ff\	8a-/	8dd-\
=18	=18	=18	=18
4D-\	4ff\	2a-/	4dd-\
4A-\	4ee-\	.	4.cc\
4B-\	4dd-\	4f/	.
.	.	.	8b-\
4E-\	4ee-\	4g-/	4b-\
=19	=19	=19	=19
2F\	2cc\	2f/	4b-\
.	.	.	4an/
4BB-/	4b-\	[2f/	2b-\
4B-\	4dd-\	.	.
=20	=20	=20	=20
4.A-\	4.cc\	2f/]	1r
8F\	8an/	.	.
4G\	4b-\	2r	.
4An\	4cc\	.	.
=21	=21	=21	=21
2B-\	4dd-\	4r	4r
.	4b-\	4b-\	4dd-\
2r	4.ff\	4.a-/	4.cc\
.	8ff\	8f/	8an/
=22	=22	=22	=22
2r	4ee-\	4g/	4b-\
.	4cc\	4an/	4cc\
4r	4b-\	4b-\	4dd-\
4BB-/	4dd-\	4f/	4b-\
=23	=23	=23	=23
4.B-\	4.dd-\	4.f/	4.dd-\
8B-\	8dd-\	8f/	8dd-\
4B-\	4dd-\	4f/	4dd-\
4B-\	4dd-\	4g/	4dd-\
=24	=24	=24	=24
4.A-\	4ee-\	2a-/	2cc\
.	2ff\	.	.
8B-\	.	.	.
2c\	.	2g/	2cc\
.	4een\	.	.
=25	=25	=25	=25
2F\	4ff\	4f/	4an/
.	4f/	4a-/	4cc\
2r	4.ff\	4.a-/	4.cc\
.	8ff\	8a-/	8cc\
=26	=26	=26	=26
1r	4ff\	4a-/	4cc\
.	4ff\	4a-/	4ddn\
.	2ee-\	4b-\	2ee-\
.	.	[4cc\	.
=27	=27	=27	=27
2r	2gg-\	8cc\L]	4dd-\
.	.	8b-\J	.
.	.	2b-\	8cc\L
.	.	.	8b-\J
4r	2ff\	.	2cc\
4F\	.	4an/	.
=28	=28	=28	=28
2B-\	4r	4b-\	2dd-\
.	4b-\	4f/	.
4A-\	2ff\	4.a-/	2cc\
4F\	.	.	.
.	.	16g/LL	.
.	.	16a-/JJ	.
=29	=29	=29	=29
4G\	4ee-\	4b-\	1r
4A-\	4cc\	8a-/L	.
.	.	8g/J	.
4B-\	4ddn\	4f/	.
8A-\L	4ee-\	4c/	.
8G\J	.	.	.
=30	=30	=30	=30
4.F\	8ff\L	2r	4r
.	8ee-\	.	.
.	8dd-\	.	4f/
8A-\	8cc\	.	.
4G-\	8b-\	4r	2b-\
.	8cc\	.	.
4G-\	8dd-\	4B-/	.
.	8b-\J	.	.
=31	=31	=31	=31
2F\	2.cc\	2f/	4a-/
.	.	.	4f/
2r	.	4e-/	4g/
.	4cc\	4c/	4an/
=32	=32	=32	=32
4r	2b-\	4dn/	4.b-\
4E-\	.	4e-/	.
.	.	.	8cc\
2B-\	4r	8f/L	4dd-\
.	.	8e-/	.
.	4b-\	8f/	4dd-\
.	.	8g/J	.
=33	=33	=33	=33
4A-\	2ff\	4.a-/	2cc\
4F\	.	.	.
.	.	16g/LL	.
.	.	16a-/JJ	.
4G\	4ee-\	4b-\	2r
4A-\	4cc\	8a-/L	.
.	.	8g/J	.
=34	=34	=34	=34
4B-\	4dd-\	2f/	1r
8A-\L	4.cc\	.	.
8G\J	.	.	.
4.F\	.	4r	.
.	8b-/L	.	.
.	8a-/	4c/	.
8E-\	8g/J	.	.
=35	=35	=35	=35
4D-\	4a-/	2f/	4r
8C/L	2b-\	.	4b-\
8BB-/J	.	.	.
4C/	.	4e-/	2ee-\
4C/	4an/	4c/	.
=36	=36	=36	=36
4BB-/	4b-\	8d-/L	4dd-\
.	.	8e-/	.
4B-\	4dd-\	8f/	4b-\
.	.	8g/J	.
4A-\	4ee-\	2a-/	4cc\
4F\	4ff\	.	4ddn\
=37	=37	=37	=37
1E-	4.gg-\	4.b-\	4.ee-\
.	8ff\L	8a-/L	8dd-\L
.	8ee-\	8g-/	8cc\
.	8dd-\J	8f/J	8b-\J
.	4ee-\	4g-/	4b-\
=38	=38	=38	=38
2.F\	4dd-\	2.f/	4b-\
.	8cc\L	.	8an/L
.	8b-\J	.	8g/J
.	4cc\	.	4a/
4F\	4cc\	4f/	4a/
=39	=39	=39	=39
2BB-/	2b-\	2dn/	2b-\
2r	2r	2r	2r
=40	=40	=40	=40
2.F\	2.cc\	2.f/	2.an/
4F\	4cc\	4f/	4a/
=41	=41	=41	=41
2F\	2cc\	2f/	2an/
2BB-/	2dd-\	2f/	2b-\
=42	=42	=42	=42
4.F\	2.cc\	[1f	4.an/
8G\	.	.	8b-\
4An\	.	.	4cc\
[4B-\	4b-\	.	4dd-\
=43	=43	=43	=43
8B-\L]	2cc\	1f]	8dd-\L
8An\J	.	.	8cc\J
4A\	.	.	4.cc\
2B-\	2dd-\	.	.
.	.	.	8b-\
.	.	.	4b-\
=44	=44	=44	=44
4F\	4cc\	2f/	4cc\
2F\	2cc\	.	2an/
.	.	4r	.
4F\	4cc\	[4f/	4a/
=45	=45	=45	=45
4.B-\	4.ddn\	4f/]	4.b-\
.	.	4f/	.
8B-\	8dd\	.	8b-\
2E-\	4ee-\	4.g-/	2b-\
.	8b-\L	.	.
.	8cc\J	8g-/	.
=46	=46	=46	=46
2.B-\	8dd-\L	4f/	4r
.	8ee-\J	.	.
.	2ff\	8B-/L	4.b-\
.	.	8c/	.
.	.	8d-/	.
.	.	8e-/	8cc\L
4B-\	4dd-\	8f/	8dd-\
.	.	8g/J	8b-\J
=47	=47	=47	=47
4A-\	4ee-\	4a-/	4cc\
4D-\	2dd-\	4a-/	4ff\
2A-\	.	2a-/	2ee-\
.	4cc\	.	.
=48	=48	=48	=48
2D-\	4dd-\	4f/	4dd-\
.	4dd-\	4f/	4ff\
2r	4ee-\	4g/	4ee-\
.	4ff\	4an/	4cc\
=49	=49	=49	=49
1r	2.b-\	4.b-\	4.dd-\
.	.	8a-/L	8cc\L
.	.	8g/	8b-\
.	.	8f/J	8a-\J
.	4dd-\	[4f/	8a-/L
.	.	.	16g/L
.	.	.	16f/JJ
=50	=50	=50	=50
2r	1cc	4f/]	4g/
.	.	4en/	4g/
[2F\	.	4f/	4f/
.	.	[4a-/	[4cc\
=51	=51	=51	=51
2F\]	1a-	8a-/L]	4cc\]
.	.	8g/	.
.	.	8f/	2a-/
.	.	8e-/J	.
2D-\	.	2f/	.
.	.	.	[4dd-\
=52	=52	=52	=52
2G-\	2b-\	4d-/	8dd-\L]
.	.	.	8cc\J
.	.	4e-/	2b-\
2F\	2cc\	2f/	.
.	.	.	4an/
=53	=53	=53	=53
*met(3)	*met(3)	*met(3)	*met(3)
*M3/4	*M3/4	*M3/4	*M3/4
2BB-/	2b-\	2f/	2b-\
4r	4b-\	4b-\	4dd-\
=54	=54	=54	=54
2.r	2ff\	2a-/	2cc\
.	4ff\	4f/	4an/
=55	=55	=55	=55
2.r	2ee-\	4.g/	4.b-\
.	.	8f/L	8a-\L
.	4ee-\	8g/	8b-\
.	.	8a-/J	8cc\J
=56	=56	=56	=56
2.r	4b-\	2b-\	4dd-\
.	2ff\	.	2cc\
.	.	4an/	.
=57	=57	=57	=57
2r	2b-\	2b-\	2dd-\
4BB-/	4dd-\	4f/	4b-\
=58	=58	=58	=58
2F\	2cc\	2f/	2a-/
4F\	4a-/	4c/	4f/
=59	=59	=59	=59
2E-\	4.b-\	2e-/	4.g/
.	8a-\L	.	8f/L
4E-\	8b-\	4e-/	8g/
.	8cc\J	.	8a-/J
=60	=60	=60	=60
4BB-/	4dd-\	4f/	2b-\
2F\	2cc\	2f/	.
.	.	.	4an/
=61	=61	=61	=61
2BB-/	2b-\	2f/	2.b-\
4BB-/	4f/	4d-/	.
=62	=62	=62	=62
4E-\	4g/	2B-/	4r
2C/	2e-/	.	4r
.	.	4A-/	4ee-\
=63	=63	=63	=63
2BB-/	2f/	2B-/	4.dd-\
.	.	.	8cc\L
4BB-/	4dd-\	4b-\	8dd-\
.	.	.	8b-\J
=64	=64	=64	=64
2F\	2cc\	2a-/	4cc\
.	.	.	8a-\L
.	.	.	8b-\
4F\	4a-/	4f/	8cc\
.	.	.	8dd-\J
=65	=65	=65	=65
2E-\	2b-\	4.g/	2ee-\
.	.	8f/L	.
4E-\	4b-\	8g/	4ee-\
.	.	8a-/J	.
=66	=66	=66	=66
4G-\	4b-\	2b-\	4dd-\
2F\	2cc\	.	2ff\
.	.	4an/	.
=67	=67	=67	=67
*met(C)	*met(C)	*met(C)	*met(C)
*M4/4	*M4/4	*M4/4	*M4/4
4BB-/	4b-\	2b-\	1ff
4B-\	4dd-\	.	.
8A-\L	8cc/L	4r	.
8G\	8b-/	.	.
8F\	8a-/	4f/	.
8E-\J	8g/J	.	.
=68	=68	=68	=68
8D-\L	4f/	8f/L	4r
8C\	.	8e-/	.
8BB-\	8b-\L	8d-/	4ff\
8AA-\J	8cc\	8c/J	.
2BB-/	8dd-\	4B-/	8ff\L
.	8ee-\	.	8ee-\
.	8ff\	[4b-\	8dd-\
.	8dd-\J	.	8cc\J
=69	=69	=69	=69
1E-	4.ee-\	8b-/L]	4b-\
.	.	8a-/	.
.	.	8g-/	4.ee-\
.	8ff\	8f/J	.
.	8gg-\L	4e-/	.
.	8ff\	.	8dd-\L
.	8ee-\	4g-/	8cc\
.	8dd-\J	.	8b-\J
=70	=70	=70	=70
1F	4cc\	2f/	4an/
.	4b-\	.	2b-\
.	4cc\	4r	.
.	4ff\	4c/	4a/
=71	=71	=71	=71
4BB-/	8ff\L	4.d-/	1b-
.	8ee-\	.	.
4B-\	8dd-\	.	.
.	8cc\J	8e-/	.
8B-\L	4b-\	4f/	.
8A-\	.	.	.
8G-\	4dd-\	[4g-/	.
8F\J	.	.	.
=72	=72	=72	=72
4E-\	4ee-\	4g-/]	1b-
4Dn\	4ff\	4f/	.
[2E-\	4.gg-\	4.e-/	.
.	8ff\	8f/	.
=73	=73	=73	=73
2E-\]	2.ee-\	2g-/	[1b-
[2BB-/	.	[2f/	.
.	(8ddn\L	.	.
.	8cc\J	.	.
=74	=74	=74	=74
1BB-]	1ddn)	1f]	1b-]
==	==	==	==
*-	*-	*-	*-
!!!ENC: Craig Stuart Sapp
!!!END: 2004/11/27/
